!!!id: bhatk3195a
!!!vol: 3
!!!page: 195
!!!antara: Nisa basara mohe
!!!raag: bihag
!!!taal: teental
!!!tempo: madhyalaya
**kern
!!data: // >mP  P  S'  -/  S'  S'  R'  S'/  >NS'  >R'S'  N  P/  >m[P  S']  N  N/
==1
f#q
4g
4g
2cc
=
4cc
4cc
4dd
4cc
=
bq
4cc
ddq
4cc
4b
4g
=
f#q
4gH
4cch
4b
4b
!!data: // >SN,  S  G  M/  P  -  N  S'/  NS'  G'R'  S'N  DP/  MD  PM  GR  SS/
==2
cq
4B
4c
4e
4f
=
2g
4b
4cc
=
8b
8cc
8ee
8dd
8cc
8b
8a
8g
=
8f
8a
8g
8f
8e
8d
8c
8c
==
*-
